!!!!SEGMENT: pl-sa--552-a-ix-32--021_anonim--polonez-wegierski.krn
!!!id: 18xx:532
!!!COM: Anonim
!!!COM-rism: pe30004985
!!!CDT:
!!!CNT:
!!!OTL: Polonez węgierski
!!!PDT:
!!!SMS-siglum: PL-SA
!!!SMS-shelfmark: 552/A IX 32
!!!NIFC-rismID: 1001069534
!!!URL-scan: http://bc.bdsandomierz.pl/dlibra/publication/1308/edition/1276/content
!!!ONB-nifc: Str.12, s. 3-5
!!!SMS-variant:
!!!SMS-altvar:
**kern	**kern
*part2	*part1
*staff2	*staff1
*I'keyb	*
*clefF4	*clefG2
*k[]	*k[]
*M3/4	*M3/4
=1	=1
!	!LO:TX:a:t=P:problem:metrum tylko na dolnej pięciolinii z kreską ułamkową
!LO:TX:t=P:problem:mixed beam	!LO:TX:i:a:t=Polonez Węgierski
8C/L 8CC/	8.cc\L
8e\J 8c\ 8G\	.
.	16ee\Jk
8eL 8c 8G\	8gg\L
8eJ 8c 8G\	16gg\L
.	16ff#X\JJ
*rep	*
8eL 8c 8G\	8gg\L
8eJ 8c 8G\	16gg\L
.	16ff#X\JJ
*Xrep	*
=2	=2
8eL 8c 8G\	8gg\L
8eJ 8c 8G\	16gg\L
!	!LO:SIC:s=16ff#
.	16ff\JJ
*rep	*rep
8eL 8c 8G\	8gg\L
8eJ 8c 8G\	16gg\L
!	!LO:SIC:s=16ff#
.	16ff\JJ
*Xrep	*Xrep
*rep	*rep
8eL 8c 8G\	8gg\L
8eJ 8c 8G\	16gg\L
!	!LO:SIC:s=16ff#
.	16ff\JJ
*Xrep	*Xrep
=3	=3
!LO:TX:t=P:problem:mixed beam	!
8C/L 8CC/	8gg\L
8e\J 8c\ 8G\	16gg\L
.	16ffn\JJ
8eL 8c 8G\	8ee\L
8eJ 8c 8G\	8ee\
*rep	*
8eL 8c 8G\	8gg\
8eJ 8c 8G\	8ee\J
*Xrep	*
=4	=4
8G 8GG/	8ff\L
.	8qgg/
8d 8B 8G\	16ff\L
.	16dd\JJ
8dL 8B 8G\	8dd\L
8dJ 8B 8G\	8ff\J
!LO:TX:a:t=P:problem:n1 nieczytelny dźwięk. Przyjęto "G"	!
4e 4c 4G	4ee\
=5	=5
16E\LL	16cc\LL
16c\	16dd\
16G\	16ee\
16c\JJ	16ff\JJ
*rep	*
16E\LL	16gg\LL
16c\	16ff#X\
16G\	16aa\
16c\JJ	16gg\JJ
*Xrep	*
*rep	*
16E\LL	16gg\LL
16c\	16ff#\
16G\	16aa\
16c\JJ	16gg\JJ
*Xrep	*
=6	=6
*rep	*
16E\LL	16gg\LL
16c\	16ff\
16G\	16aa\
16c\JJ	16gg\JJ
*Xrep	*
*rep	*rep
16E\LL	16gg\LL
16c\	16ff\
16G\	16aa\
16c\JJ	16gg\JJ
*Xrep	*Xrep
*rep	*rep
16E\LL	16gg\LL
16c\	16ff\
16G\	16aa\
16c\JJ	16gg\JJ
*Xrep	*Xrep
=7	=7
*2\right	*
*tremolo	*
8d 8B 8G\L	16ffn\LL
.	16ee\
8d 8B 8G\	16dd\
.	16cc\JJ
8d 8B 8G\	16b\LL
.	16cc\
8d 8B 8G\	16dd\
.	16ee\JJ
8d 8B 8G\	16ff\LL
.	16gg\
8d 8B 8G\J	16aa\
.	16ff\JJ
*Xtremolo	*
=8	=8
8eL 8B 8G\	16ee\LL
.	16cc\
8dJ 8B 8G\	16a\
.	16dd\JJ
.	8qdd/
*	*2\right
8r	2cc\
8f 8d 8G\	.
4e 4c 4G\	.
!!LO:LB:g=original
=9:|!|:	=9:|!|:
!LO:TX:t=P:problem:mixed beam	!
8GG/L	8.ffL 8.dd\
8G\J	.
.	16eeJk 16cc\
*rep	*
8GG/L	8ddL 8b\
8G/J	16ddL 16b\
.	16ccJJ 16a\
*Xrep	*
*rep	*
8GG/L	8bL 8g\
8G/J	8ccJ 8a\
*Xrep	*
=10	=10
*rep	*
8GG/L	8ddL 8b\
8G/J	16ddL 16b\
.	16eeJJ 16cc\
*Xrep	*
*rep	*
8GG/L	8ffL 8dd\
8G/J	8aa 8ff\
*Xrep	*
*rep	*
8GG/L	8gg 8ee\
8G/J	8ffJ 8dd\
*Xrep	*
=11	=11
*rep	*
8GG/L	8ffL 8dd\
8G/J	16ffL 16dd\
.	16eeJJ 16cc\
*Xrep	*
*rep	*
8GG/L	8ddL 8b\
8G/J	16ddL 16b\
.	16ccJJ 16a\
*Xrep	*
*rep	*
8GG/L	8bL 8g\
8G/J	16bL 16g\
.	16ccJJ 16a\
*Xrep	*
=12	=12
*rep	*
8GG/L	8ddL 8b\
8G/J	16ddL 16b\
.	16eeJJ 16cc\
*Xrep	*
*rep	*
8GG/L	8ffL 8dd\
8G/J	16ffL 16dd\
.	16ggJJ 16ee\
*Xrep	*
4c 4C\	4ee 4cc\
=13	=13
*clefG2	*
8dL 8B/	8dd\L
8g/J	16dd\L
.	16ee\JJ
*rep	*rep
8dL 8B/	8dd\L
8g/J	16dd\L
.	16ee\JJ
*Xrep	*Xrep
*rep	*rep
8dL 8B/	8dd\L
8g/J	16dd\L
.	16ee\JJ
*Xrep	*Xrep
=14	=14
8bL 8g 8d/	8gg\L
8bJ 8g 8d/	16aa\L
.	16ff#X\JJ
*rep	*rep
8bL 8g 8d/	8gg\L
8bJ 8g 8d/	16aa\L
.	16ff#\JJ
*Xrep	*Xrep
8b 8g 8d/	16gg\LL
.	16ee\
8r	16ff#\
.	16dd\JJ
!LO:CL:ed	!
*clefF4	*
!!LO:LB:g=original
=15||	=15||
*M3/4	*
*clefG2	*
!	!LO:TX:a:i:t=Trio
!	!LO:TX:a:t=P:problem:napis przed akoladą
!	!LO:TX:a:t=P:problem:metrum tylko na dolnej pięciolinii z kreską ułamkową
8gL 8e 8c/	8ccc\L
8gJ 8e 8c/	8gg\J
*rep	*rep
8gL 8e 8c/	8ccc\L
8gJ 8e 8c/	8gg\J
*Xrep	*Xrep
*rep	*rep
8gL 8e 8c/	8ccc\L
8eJ 8c/	8gg\J
*Xrep	*Xrep
=16	=16
*rep	*
!LO:TX:a:t=P:problem:brak oznaczeń cyfrowych nad powtórzeniami	!
8gL 8e 8c/	8cc\L
8gJ 8e 8c/	16cc\L
.	16dd\JJ
8gL 8e 8c/	8ee\L
8gJ 8e 8c/	16ee\L
.	16ff\JJ
8gL 8e 8c/	8gg\L
8gJ 8e 8c/	16aa\L
.	16bb\JJ
*Xrep	*
=17	=17
8g 8e 8d/	8ccc\L
8g 8f 8d/	16ccc\L
.	16bb\JJ
*rep	*rep
8gL 8e 8d/	8ccc\L
8gJ 8f 8d/	16ccc\L
.	16bb\JJ
*Xrep	*Xrep
8gL 8e 8c/	8ccc\L
8gJ 8e 8c/	8gg\J
=18	=18
8.g 8.e 8.c/	8dd\L
.	16dd\L
8.g 8.d 8.B/	16ee\JJ
.	16gg\LL
.	16ff\
4g 4e 4c/	16ee\
.	16dd\JJ
.	4cc\
8ryy	.
=19:|!|:	=19:|!|:
*clefF4	*
8BL 8G\	4.gg 4.dd 4.b\
8D\J	.
*rep	*
8BL 8G\	.
8D\J	16b\LL
.	16dd\JJ
*Xrep	*
*rep	*
8BL 8G\	16dd\LL
.	16cc\
8D\J	16b\
.	16a\JJ
*Xrep	*
=20	=20
*rep	*
8BL 8G\	8g\L
8D\J	16g\L
.	16a\JJ
*Xrep	*
*rep	*
8BL 8G\	8b\L
8D\J	16b\L
.	16cc\JJ
*Xrep	*
*rep	*
8BL 8G\	16dd\LL
.	16cc\
8D\J	16b\
.	16a\JJ
*Xrep	*
=21	=21
4B 4G 4D\	8g\L
.	16g\L
.	16a\JJ
4ryy	8b\L
.	16b\L
.	16cc\JJ
4A 4F 4D\	8dd\L
.	16ee\L
.	16ff#X\JJ
=22	=22
16B\LL	16gg\LL
16d\	16ff#X\
16c\	16aa\
16d\JJ	16gg\JJ
*rep	*
16B\LL	16gg\LL
16d\	16ff#\
16c\	16aa\
16d\JJ	16gg\JJ
*Xrep	*
4d 4B 4G\	4gg\
==	==
*-	*-
!!!system-decoration: [(s1,s2)]
!!!RDF**kern: > = above
!!!RDF**kern: < = below
!!!EED: Mateusz Mrugas
!!!EST: 2020-12-12
!!!ENC: Marta Chmielewska
!!!END: 2020-06-18
